P/planetscale.com logo.svg

<?xml version="1.0" ?>
<svg xmlns="http://www.w3.org/2000/svg" fill="none" viewBox="0 0 2833 454">
	<g fill="#000">
		<path d="m0 227c.00001067-125.369 101.631-227.00001067 227-227 92.178.00000806 171.524 54.9423 207.076 133.865l-300.211 300.211c-12.882-5.803-25.126-12.774-36.5966-20.776l186.2996-186.3h-56.568l-160.5132 160.513c-41.0789-41.079-66.48680548-97.829-66.4868-160.513z"/>
		<path d="m454 227.078-226.922 226.922c125.307-.042 226.88-101.615 226.922-226.922z"/>
		<path clip-rule="evenodd" d="m574.357 69v310.125h43.363v-96.131h64.762c58.881-.598 106.83-45.133 106.83-103.572 0-64.825-46.662-110.422-106.589-110.422zm173.451 107.54c0 36.334-29.662 68.265-65.84 68.456-11.248-.006-22.493-.003-33.736-.001-10.172.003-20.343.005-30.512.001v-137.746l63.927.003c36.32 0 66.161 31.037 66.161 69.287z" fill-rule="evenodd"/>
		<path d="m2530.09 379.133v-310.1281l26.61-.0032c8.09-.0017 13.53-.0029 16.98.0003v310.131z"/>
		<path d="m855.398 379.133v-309.9541c-7.692-.0034-14.46-.0032-26.71-.0028l-16.876.0003v309.9566z"/>
		<path clip-rule="evenodd" d="m1123.93 379.133v-232.177h-43.59v32.689h-.84c-18.02-26.403-46.52-38.975-80.463-38.975-68.312 0-121.537 51.967-121.537 126.146 0 67.055 55.32 118.184 123.21 118.184 33.11 0 62.45-14.249 78.79-41.909h.84v36.042zm-123.64-33.947c-43.582 0-79.205-38.137-79.205-81.723 0-45.681 35.623-82.98 79.205-82.98 48.2 0 80.89 37.719 80.89 82.98 0 44.005-35.62 81.723-80.89 81.723z" fill-rule="evenodd"/>
		<path d="m1367.1 379.133v-139.139c0-64.121-41.07-99.324-96.81-99.324-26.82 0-50.71 8.801-67.89 31.012h-.84v-24.726h-43.56v232.177h46.5v-126.985c0-43.586 23.05-71.665 61.18-71.665 38.56 0 57.84 23.05 57.84 72.084v126.566z"/>
		<path clip-rule="evenodd" d="m1625.36 280.242c1.01-7.246 1.01-13.508 1.01-20.131 0-66.636-51.97-119.441-120.28-119.441-61.61 0-116.93 51.129-116.93 124.47 0 62.025 52.81 119.86 118.19 119.86 49.87 0 93.46-31.013 111.48-78.789h-43.59c-13.41 24.726-38.97 38.975-66.22 38.975-35.28 0-65.63-24.258-75.98-62.186h191.86c.17-.887.32-1.819.46-2.758zm-192.25-35.242c5.02-38.016 39.63-64.517 74.24-64.517 36.22 0 70.08 26.881 75.07 64.517z" fill-rule="evenodd"/>
		<path d="m1943.51 146.506h48.51c-7.39-38.077-50.86-77.5011-109.32-77.5011-61.16 0-108.04 34.9741-108.04 87.5091 0 42.415 30.32 68.436 79.28 81.681l36.02 9.823c32.59 8.632 57.83 20.115 57.83 47.202 0 29.765-28.42 49.41-67.57 49.41-31.21 0-57.81-12.255-65.51-37.884h-48.45c7.95 46.974 49.75 78.215 114.26 78.215 71.59 0 112.81-37.653 112.81-89.295 0-54.916-49.05-76.967-87.74-86.492l-29.77-7.738c-23.81-6.102-55.47-18.431-55.33-47.601 0-25.895 23.67-46.585 61.17-46.585 32.08 0 55.65 15.267 61.85 39.256z"/>
		<path d="m2241.21 306.746c-19.31 49.73-62.69 78.254-112.81 78.254-66.64 0-119.02-53.644-119.02-119.86 0-69.988 50.7-124.47 118.6-124.47 51.19 0 98.06 31.12 113.47 78.848h-49.14c-13.11-24.5-33.43-39.035-63.07-39.035-45.69 0-76.28 34.785-76.28 82.142 0 46.1 31.43 82.561 75.44 82.561 28.12 0 51.01-14.229 63.69-38.44z"/>
		<path clip-rule="evenodd" d="m2495.97 146.956v232.177h-43.58v-36.042h-.84c-16.35 27.66-45.68 41.909-78.79 41.909-67.89 0-123.21-51.129-123.21-118.184 0-74.179 53.22-126.146 121.53-126.146 33.95 0 62.45 12.572 80.47 38.975h.84v-32.689zm-202.84 116.507c0 43.586 35.62 81.723 79.21 81.723 45.26 0 80.88-37.718 80.88-81.723 0-45.261-32.68-82.98-80.88-82.98-43.59 0-79.21 37.299-79.21 82.98z" fill-rule="evenodd"/>
		<path clip-rule="evenodd" d="m2832.05 278.973c.84-6.714.84-12.627.84-18.86v-.002c0-1.041-.01-2.078-.03-3.111-.21-8.378-1.24-16.524-3.02-24.36-3.27-14.415-9.08-27.78-16.99-39.603-21.23-31.739-57.54-52.367-100.24-52.367-61.6 0-116.92 51.129-116.92 124.47 0 7.753.82 15.441 2.39 22.958 11 52.622 58.59 96.902 115.79 96.902 49.87 0 93.46-31.013 111.48-78.789h-43.59c-1.67 3.091-3.54 6.018-5.57 8.774-14.25 19.292-36.81 30.201-60.64 30.201-35.29 0-65.64-24.259-75.98-62.186h191.85c.07-.359.14-.725.2-1.097h.02c.15-.995.29-1.97.41-2.93zm-191.78-37.92c6.81-35.891 40.21-60.57 73.6-60.57 36.23 0 70.08 26.881 75.07 64.517h-149.3c.17-1.33.38-2.646.63-3.947z" fill-rule="evenodd"/>
		<path d="m1703.97 147h48.69v38.028h-48.69v129.807c0 22.788 11.04 29.134 23.38 30.291.87.023 1.64.053 2.31.089 7.5.401 13.37-.743 16.96-1.923 5.11 11.592 12.03 22.204 20.6 31.531-15.11 9.09-33.05 10.81-46.59 9.998-6.53-.341-12.88-1.428-18.86-3.263-26.67-8.122-35.06-27.281-38.08-35.132l.19-.007c-2.29-6.598-3.54-14.049-3.5-22.358v-139.033h-34.24v-38.028h34.24v-77.9951h43.59z"/>
	</g>
</svg>

<?xml version="1.0" ?>
<svg xmlns="http://www.w3.org/2000/svg" role="img" viewBox="-59.20 -56.70 2948.40 565.90">
	<path d="M 0.0,227.0 C 1e-05,101.631 101.631,-1e-05 227.0,0.0 C 319.178,0.0 398.524,54.9423 434.076,133.865 L 133.865,434.076 C 120.983,428.273 108.739,421.302 97.2684,413.3 L 283.568,227.0 L 227.0,227.0 L 66.4868,387.513 C 25.4079,346.434 0.0,289.684 0.0,227.0 M 454.0,227.078 L 227.078,454.0 C 352.385,453.958 453.958,352.385 454.0,227.078"/>
	<path fill-rule="evenodd" d="M 574.357,69.0 L 574.357,379.125 L 617.72,379.125 L 617.72,282.994 L 682.482,282.994 C 741.363,282.396 789.312,237.861 789.312,179.422 C 789.312,114.597 742.65,69.0 682.723,69.0 L 574.357,69.0 M 747.808,176.54 C 747.808,212.874 718.146,244.805 681.968,244.996 C 670.72,244.99 659.475,244.993 648.232,244.995 C 638.06,244.998 627.889,245.0 617.72,244.996 L 617.72,107.25 L 681.647,107.253 C 717.967,107.253 747.808,138.29 747.808,176.54" clip-rule="evenodd"/>
	<path d="M 2530.09,379.133 L 2530.09,69.0049 L 2556.7,69.0017 C 2564.79,69.0 2570.23,68.9988 2573.68,69.002 L 2573.68,379.133 L 2530.09,379.133 M 855.398,379.133 L 855.398,69.1789 C 847.706,69.1755 840.938,69.1757 828.688,69.1761 L 811.812,69.1764 L 811.812,379.133 L 855.398,379.133"/>
	<path fill-rule="evenodd" d="M 1123.93,379.133 L 1123.93,146.956 L 1080.34,146.956 L 1080.34,179.645 L 1079.5,179.645 C 1061.48,153.242 1032.98,140.67 999.037,140.67 C 930.725,140.67 877.5,192.637 877.5,266.816 C 877.5,333.871 932.82,385.0 1000.71,385.0 C 1033.82,385.0 1063.16,370.751 1079.5,343.091 L 1080.34,343.091 L 1080.34,379.133 L 1123.93,379.133 M 1000.29,345.186 C 956.708,345.186 921.085,307.049 921.085,263.463 C 921.085,217.782 956.708,180.483 1000.29,180.483 C 1048.49,180.483 1081.18,218.202 1081.18,263.463 C 1081.18,307.468 1045.56,345.186 1000.29,345.186" clip-rule="evenodd"/>
	<path d="M 1367.1,379.133 L 1367.1,239.994 C 1367.1,175.873 1326.03,140.67 1270.29,140.67 C 1243.47,140.67 1219.58,149.471 1202.4,171.682 L 1201.56,171.682 L 1201.56,146.956 L 1158.0,146.956 L 1158.0,379.133 L 1204.5,379.133 L 1204.5,252.148 C 1204.5,208.562 1227.55,180.483 1265.68,180.483 C 1304.24,180.483 1323.52,203.533 1323.52,252.567 L 1323.52,379.133 L 1367.1,379.133"/>
	<path fill-rule="evenodd" d="M 1625.36,280.242 C 1626.37,272.996 1626.37,266.734 1626.37,260.111 C 1626.37,193.475 1574.4,140.67 1506.09,140.67 C 1444.48,140.67 1389.16,191.799 1389.16,265.14 C 1389.16,327.165 1441.97,385.0 1507.35,385.0 C 1557.22,385.0 1600.81,353.987 1618.83,306.211 L 1575.24,306.211 C 1561.83,330.937 1536.27,345.186 1509.02,345.186 C 1473.74,345.186 1443.39,320.928 1433.04,283.0 L 1624.9,283.0 C 1625.07,282.113 1625.22,281.181 1625.36,280.242 L 1625.36,280.242 M 1433.11,245.0 C 1438.13,206.984 1472.74,180.483 1507.35,180.483 C 1543.57,180.483 1577.43,207.364 1582.42,245.0 L 1433.11,245.0" clip-rule="evenodd"/>
	<path d="M 1943.51,146.506 L 1992.02,146.506 C 1984.63,108.429 1941.16,69.0049 1882.7,69.0049 C 1821.54,69.0049 1774.66,103.979 1774.66,156.514 C 1774.66,198.929 1804.98,224.95 1853.94,238.195 L 1889.96,248.018 C 1922.55,256.65 1947.79,268.133 1947.79,295.22 C 1947.79,324.985 1919.37,344.63 1880.22,344.63 C 1849.01,344.63 1822.41,332.375 1814.71,306.746 L 1766.26,306.746 C 1774.21,353.72 1816.01,384.961 1880.52,384.961 C 1952.11,384.961 1993.33,347.308 1993.33,295.666 C 1993.33,240.75 1944.28,218.699 1905.59,209.174 L 1875.82,201.436 C 1852.01,195.334 1820.35,183.005 1820.49,153.835 C 1820.49,127.94 1844.16,107.25 1881.66,107.25 C 1913.74,107.25 1937.31,122.517 1943.51,146.506 L 1943.51,146.506 M 2241.21,306.746 C 2221.9,356.476 2178.52,385.0 2128.4,385.0 C 2061.76,385.0 2009.38,331.356 2009.38,265.14 C 2009.38,195.152 2060.08,140.67 2127.98,140.67 C 2179.17,140.67 2226.04,171.79 2241.45,219.518 L 2192.31,219.518 C 2179.2,195.018 2158.88,180.483 2129.24,180.483 C 2083.55,180.483 2052.96,215.268 2052.96,262.625 C 2052.96,308.725 2084.39,345.186 2128.4,345.186 C 2156.52,345.186 2179.41,330.957 2192.09,306.746 L 2241.21,306.746"/>
	<path fill-rule="evenodd" d="M 2495.97,146.956 L 2495.97,379.133 L 2452.39,379.133 L 2452.39,343.091 L 2451.55,343.091 C 2435.2,370.751 2405.87,385.0 2372.76,385.0 C 2304.87,385.0 2249.55,333.871 2249.55,266.816 C 2249.55,192.637 2302.77,140.67 2371.08,140.67 C 2405.03,140.67 2433.53,153.242 2451.55,179.645 L 2452.39,179.645 L 2452.39,146.956 L 2495.97,146.956 M 2293.13,263.463 C 2293.13,307.049 2328.75,345.186 2372.34,345.186 C 2417.6,345.186 2453.22,307.468 2453.22,263.463 C 2453.22,218.202 2420.54,180.483 2372.34,180.483 C 2328.75,180.483 2293.13,217.782 2293.13,263.463 M 2832.05,278.973 C 2832.89,272.259 2832.89,266.346 2832.89,260.113 L 2832.89,260.111 C 2832.89,259.07 2832.88,258.033 2832.86,257.0 C 2832.65,248.622 2831.62,240.476 2829.84,232.64 C 2826.57,218.225 2820.76,204.86 2812.85,193.037 C 2791.62,161.298 2755.31,140.67 2712.61,140.67 C 2651.01,140.67 2595.69,191.799 2595.69,265.14 C 2595.69,272.893 2596.51,280.581 2598.08,288.098 C 2609.08,340.72 2656.67,385.0 2713.87,385.0 C 2763.74,385.0 2807.33,353.987 2825.35,306.211 L 2781.76,306.211 C 2780.09,309.302 2778.22,312.229 2776.19,314.985 C 2761.94,334.277 2739.38,345.186 2715.55,345.186 C 2680.26,345.186 2649.91,320.927 2639.57,283.0 L 2831.42,283.0 C 2831.49,282.641 2831.56,282.275 2831.62,281.903 L 2831.64,281.903 C 2831.79,280.908 2831.93,279.933 2832.05,278.973 L 2832.05,278.973 M 2640.27,241.053 C 2647.08,205.162 2680.48,180.483 2713.87,180.483 C 2750.1,180.483 2783.95,207.364 2788.94,245.0 L 2639.64,245.0 C 2639.81,243.67 2640.02,242.354 2640.27,241.053" clip-rule="evenodd"/>
	<path d="M 1703.97,147.0 L 1752.66,147.0 L 1752.66,185.028 L 1703.97,185.028 L 1703.97,314.835 C 1703.97,337.623 1715.01,343.969 1727.35,345.126 C 1728.22,345.149 1728.99,345.179 1729.66,345.215 C 1737.16,345.616 1743.03,344.472 1746.62,343.292 C 1751.73,354.884 1758.65,365.496 1767.22,374.823 C 1752.11,383.913 1734.17,385.633 1720.63,384.821 C 1714.1,384.48 1707.75,383.393 1701.77,381.558 C 1675.1,373.436 1666.71,354.277 1663.69,346.426 L 1663.88,346.419 C 1661.59,339.821 1660.34,332.37 1660.38,324.061 L 1660.38,185.028 L 1626.14,185.028 L 1626.14,147.0 L 1660.38,147.0 L 1660.38,69.0049 L 1703.97,69.0049 L 1703.97,147.0"/>
</svg>
